X:1
T:Untitled in 3/4. SenH.119
T:Untitled in 3/4. SenH.119
T:in Hand C
C:in Hand C
L:1/8
Q:1/4=100
M:3/4
K:C
V:1 treble 
V:1
 e2 ae fd | (ea) e2 f2 | eA f2 dc | B4 z g | g/f/e/d/ cg a2 | z2 z2 g2 | g2- gf/e/ fe/d/ | %7
 ef d3 c |1 c6 :|2 c4 e2 |: (e2 a)g fe | (B2 g)f ec | (A2 f)e db | ^g4 e2 | c'3 e fd b3 a ^ge | %15
 ac B2 ^g2 | a6 :| %17

